X: 40385
T: Tom Hark
R: hornpipe
M: 4/4
K: Gmajor
B,>CD2G>ED2|C>DE2A>FD2|A,>B,D2D2D>A,|G,>B,D2D2:|
|:e>ed2c2B2|AG3F4|d>dc2B2A2|Gd3B4:|
B>cB2G2G2|B>cB2A4|B>cB2A2A2|B>cB2G4|
B>cB2G2G2|B>cB2A4|A>BA2F2F>A|A>GD2B,4||
G2GG2FG2|E2AA2GA2|D2GG2FG2|D4D2DE>F|
G2dd2cd2|E2ee2de2c2|d>ed2c2A2|B2G2B2D||

